X:1
T:I Ride an Old Paint
M:3/4
L:1/4
K:G
 z2 D| G3/2 G/2 G| E/2- D3/2 z/2 D/2| G3/2 G/2 G| E/2- D3/2 z/2 D/2|\
 A3/2 A/2 A| A G G/2G/2| B3/2 A/2B/2 A/2| G2 G| A3/2 A/2 A| A G A|\
 B3/2 A/2B/2 A/2| G2 G| F3/2 F/2 F| F D F| G3/2 G/2 G| G2 G/2G/2| A3/2 A/2 A|\
 A G A/2A/2| B3/2- A/2B/2-A/2| G2 G/2G/2| F3/2 F/2 F| F D F| G3/2 G/2 A|\
 G2 z|
